X:1
T:Light Of The Seven
T: The Children (Piano & Vocals)
T: Game Of Thrones OST Season 4 Episode 10
T: Composed by Ramin Djawadi Piano arrangement by Nicolas Del Gallo Full playthrough and more at https://www.youtube.com/c/NDGmusic If you want to donate, please check out my Patreon ☺ https://www.patreon.com/ndg 
T:Lyrics (unofficial, credits to Elaine at https://elainearmentano.wordpress.com/2016/09/06/game-of-thrones-the-children-lyrics/) Jore pagoon Daria demalion, haedar be glaeson Daere merebisa embaro jere iderenna reala gon Nar döreyn paes oñe sïkuda emagon saigreyno Donde estáel poder? Donde estáel amor? Donde estáel poder? Donde estáel po Rije merberïn Djaile ñepa vale Rije merberïn Djaile mïsagon mederiya Djaile mïsagon mederiya Djaile mïsagon mederiya Translation (credits to reddit user claytoy at https://www.reddit.com/r/freefolk/comments/8446zc/tentative_translation_of_lyrics_of_the_children/ ) Praying that The little sister will be queen of the throne in her life The one that is free to hold her choice as the sea Light of the seven slowly making her the no one Where is the power? Where is the love? Where is the power? Where is Praised be the hunger for victory For Goddess trusts no man Praised be the hunger for victory For Goddess protects the queen For Goddess protects the queen For Goddess protects the queen Note from NDG: I don't think those are the correct lyrics, but they sound good and make sense. Since the official lyrics remain unknown, I decided to use this one! 
C:Ramin Djawadi
%%score 1 { ( 2 5 ) | ( 3 4 ) }
L:1/8
Q:1/4=60
M:4/4
K:F
V:1 treble nm="Vocals" snm="V."
V:2 treble nm="Piano" snm="Pno."
V:5 treble 
V:3 bass 
V:4 bass 
V:1
 z8 | z8 | D2 A6- | A4 B2 c2 | d8 | D2 A4 GF | A8 | G2 A2 B2 AB | A8 |[M:6/8][Q:1/8=150] z6 | z6 | %11
w: ||Jo- re|_ e pa-|goon|Da- ria de- ma-|lion,|ha- e- dar be glae-|son|||
 z6 |[M:3/8] z3 |[M:6/8] A3 D3 | F/G/ A2 D2 F/G/ | E6- | E6 | G3 C3 | F/E/ G2 C3 | F/E/ D2- D3- | %20
w: ||Dae- re|me- re- bi- sa em- ba-|ro|_|je- re|i- de- re- nna|rea- la gon _|
 D6 | d3- d2 c/d/ | c3- c2 A/c/ | B3- B2 A/B/ | A3- A2 F/E/ | D6 | F3 G3 | A6- | A6 | z6 | z6 | %31
w: _|Nar _ dö- re-|yn _ paes- o-|ñe _ sï- ku-|da _ e- ma-|gon|sai- grey-|no|_|||
 z6 | z6 | z6 | z6 | D3/2E3/2 ^F3/2G3/2 | B6 | D3/2E3/2 ^F3/2B3/2 | A6 | D3/2E3/2 ^F3/2G3/2 | c6 | %41
w: ||||Don- de estáel po-|der?|Don- de estáel a-|mor?|Don- de estáel po-|der?|
 c3/2B3/2 A3/2G3/2 | z6 | z6 ||[K:C] E3 E3 | E E2 E3 | A3 E3 | F/G/ A2 G3 | A3 A3 | A A2 G3 | %50
w: Don- de estáel po|||Ri- je|mer- be- rïn|Djai- le|ñe- pa va- le|Ri- je|mer- be- rïn|
 AEF/G/ A3 | A A2 G3 | AEF/G/ A3 | A A2 G3 | AEF/G/ A3 | A A2 B3 | !fermata!A6 |] %57
w: Djai- le mï- sa- gon|me- de- riya|Djai- le mï- sa- gon|me- de- riya|Djai- le mï- sa- gon|me- de- ri-|ya|
V:2
!mp! !///-!D4 A4 | !///-!D4 A4 | !///-!D4 A4 | !///-!D4 B4 |!<(! !///-!D4 [Bd]4!<)! | %5
!mf! [A,D]2 [A,DA]4 [G,G][F,F] | [A,CEA]4 [G,G]2 [F,F]2 | [G,G]2 [A,A]2 [B,B]2 [A,A][B,B] | %8
 [A,DA]4!<(! !///-!A,2 [DEA]2!<)! |[M:6/8]!f! DA,B,/C/ DA,B,/C/ | DA,B,/C/ DA,B,/C/ | %11
 DA,C/D/ ECD/E/ |[M:3/8] F/D/E/F/G/E/ |[M:6/8] [A,DFA]>A,D/F/ [F,B,DF]3 | %14
 [F,A,F]/[G,G]/ [A,CA]2 [F,B,D]2 [B,DF]/G/ | [Ee][A,A][Cc]/[Dd]/ [Ee][A,A][Cc]/[Dd]/ | %16
 [Ee][A,A][Cc]/[Dd]/ [Ee][A,A][Cc]/[Dd]/ | [G,B,DG][G,B,DG][G,B,DG] [E,A,C][E,A,C][E,A,C] | %18
 [F,B,DF]/E/[F,B,DG][F,B,DF] [E,G,C][E,G,C][E,G,C] | [Dd][A,A][B,B]/[Cc]/ [Dd][A,A][B,B]/[Cc]/ | %20
 [Dd][A,A][B,B]/[Cc]/ [Dd][A,A][B,B]/[Cc]/ | [DFBd]F[DB]/c/ [Dd][DF][Dc]/d/ | %22
 [CFAc]FA/B/ c[CF][CA]/c/ | B/B,/D/B,/G/A/ B/B,/D/B,/A/B/ | A/A,/D/A,/F/G/ A/A,/D/A,/F/E/ | %25
 [F,B,D][F,B,D][F,B,D] [F,B,D][F,B,D][F,B,D] | [F,B,DF][F,B,DF][F,B,DF] [G,CEG][G,CEG][G,CEG] | %27
 DA,B,/C/ D[A,A][B,B]/[Cc]/ | [Dd][A,A][B,B]/[Cc]/ [Dd][A,A][Cc] | d/D/F/D/B/c/ d/D/F/D/B/d/ | %30
 c/C/F/C/A/B/ c/C/F/C/A/c/ |"_dim." B/B,/D/B,/G/A/ B/B,/D/B,/A/B/ | A/A,/D/A,/F/G/ A/A,/D/A,/F/E/ | %33
!mf! [F,B,D]2 [F,B,D] [F,B,D][F,B,D][F,B,D] | [G,B,DF]3 !>![A,CE]3 | %35
!sfz! [D,A,D]3/2[E,A,E]3/2 [^F,A,^F]3/2[G,A,G]3/2 | [B,B][B,D]/B,/G/A/ [B,B][B,D]/B,/G/A/ | %37
 [D,A,D]3/2[E,A,E]3/2 [^F,A,^F]3/2[B,DB]3/2 | [A,A][A,D]/A,/^F/G/ [A,A][A,D]/A,/F/G/ | %39
 [D,A,D]3/2[E,A,E]3/2 [^F,A,^F]3/2[G,A,G]3/2 | [Cc][CE]/C/^F/G/ [Cc][CE]/C/F/G/ | %41
 [CEc]3/2[B,DB]3/2 [A,DA]3/2[G,DG]3/2 | z3 z2 ^F/G/ | %43
 A>[Bb][Aa]/[Gg]/ [Ff]/[Gg]/[Ee]/[Ff]/[Dd]/[Cc]/ ||[K:C] [E,E]A,[E,C]/D/ [E,E]A,[E,C]/D/ | %45
 [E,E]A,/[F,F]/[E,E]/[D,D]/ [C,C]/[D,D]/[B,,B,]/[C,C]/A,/G,/ | [E,E][E,A,]^C/D/ [E,E]A,D/E/ | %47
 [F,F]CD/E/ [G,G][Cc]/[B,B]/[A,A]/[G,G]/ | [Ee][A,A][Cc]/[Dd]/ [Ee][A,A][Cc]/[Dd]/ | %49
 [Ee][A,A][^C^c]/[Dd]/ [Ee][A,A][Ff]/[Ee]/ | [Ee][A,A][^C^c]/[Dd]/ [Ee][A,A][Cc]/[Dd]/ | %51
 [Ee][A,A][Ff]/[Ee]/ [Dd]/[Ee]/[Cc]/[Dd]/[B,B]/[A,A]/ | [Ee][A,A][Cc]/[Dd]/ [Gg][A,A][Cc]/[Dd]/ | %53
 [Aa][B,B][Gg]/[Aa]/ [cc']/[Bb]/[Gg]/[Aa]/[Ff]/[Ee]/ | [cc'][Ee][Aa]/[Bb]/ [cc'][Ee][Aa]/[Bb]/ | %55
 [cc'][Aa][Bb]/[cc']/ [dd']/[Bb]/[cc']/[dd']/[ee']/[cc']/ | !fermata![Aa]6 |] %57
V:3
 [D,,D,]7 D,, | D,,8 | D,,7 D,, | D,,8 | !///-!D,,4 D,4 | !arpeggio![D,,A,,F,]4 [D,,,D,,]4 | %6
 [E,,,E,,]8 | [G,,,-G,,]4 [G,,,G,,]4 | [A,,,A,,]4 !///-!A,,,2 A,,2 | %9
[M:6/8] !>![D,,D,]!>![D,,D,]D,,/D,,/ !>![D,,D,]!>![D,,D,]D,,/D,,/ | %10
 !>![D,,D,]!>![D,,D,]D,,/D,,/ !>![D,,D,]!>![D,,D,]D,,/D,,/ | %11
 !>![D,,D,E,]!>![D,,D,E,]D,,/D,,/ !>![D,,D,E,]!>![D,,D,E,]D,,/D,,/ | %12
[M:3/8] !>![D,,F,]!>![D,,F,]F,/G,/ |[M:6/8] !>![D,,D,]D,,D,/D,,/ !>![B,,,B,,]B,,,B,,/B,,,/ | %14
 !>![F,,,F,,]>F,,,F,,/F,,,/ !>![B,,,B,,]>B,,,B,,/B,,,/ | %15
 !>![A,,,A,,]A,,,/A,,/A,,,/A,,/ !>![A,,E,][A,,,A,,][A,,,A,,] | %16
 !>![A,,,A,,]A,,,/A,,/A,,,/A,,/ !>![A,,E,][A,,,A,,][A,,,A,,] | %17
 !>![G,,,G,,]3/2[G,,,G,,][G,,,G,,]/ !>![A,,,A,,]3/2[A,,,A,,][A,,,A,,]/ | %18
 !>![B,,,B,,]3/2[B,,,B,,][B,,,B,,]/ !>![C,,C,]3/2[C,,C,][C,,C,]/ | %19
 !>![D,,F,]/[D,,E,]/[D,,D,][D,,D,] [D,,D,]3/2D,D,,/ | !>![D,,D,]3/2D,D,,/ [D,A,][D,,D,][D,,D,] | %21
 !>![B,,,B,,]>B,,F,/B,/ D[B,,B,][B,,,B,,] | !>![F,,,F,,]>F,,C,/F,/ A,[F,,F,][F,,,F,,] | %23
 !>![G,,,G,,]G,,,/G,,/G,,/D,/ [G,,G,][G,,,G,,][G,,,G,,] | !>![D,,D,]D,,/A,,/D,/D,,/ F,D,[D,,D,] | %25
 !>![B,,,B,,]>B,,,B,,/B,,,/ [B,,,B,,]>B,,,B,,/B,,,/ | %26
 !>![G,,,G,,]>G,,,G,,/G,,,/ !>![A,,,A,,]>A,,,A,,/A,,,/ | %27
 !>![D,,,D,,]>D,,D,/D,,/ [D,,D,][D,,D,][D,,D,] | !>![D,,,D,,]>D,,D,/D,,/ [D,,D,][D,,D,][D,,D,] | %29
 [B,,,B,,]3/2B,,F,/ B,[B,,,B,,][B,,,B,,] | [A,,,A,,]3/2A,,F,/ A,[A,,,A,,][A,,,A,,] | %31
 [G,,,G,,]3/2G,,D,/ G,[G,,,G,,][G,,,G,,] | [F,,,F,,]3/2F,,D,/ F,[F,,,F,,][F,,,F,,] | %33
 [B,,,B,,]>B,,,B,,/B,,,/ [B,,,B,,][B,,,B,,][B,,,B,,] | %34
 [G,,,G,,]>G,,,G,,/G,,,/ [A,,,A,,]3/2[A,,,A,,]3/2 | %35
 !>![D,,,D,,]3/2!>![E,,,E,,]3/2 !>![^F,,,^F,,]3/2!>![G,,,G,,]3/2 | %36
 [B,,,B,,]>B,,,B,,/B,,,/ B,,/B,,,/B,,/B,,,/B,,/B,,,/ | %37
 !>![D,,,D,,]3/2!>![E,,,E,,]3/2 !>![^F,,,^F,,]3/2!>![B,,,B,,]3/2 | %38
 !>![A,,,A,,]>A,,,A,,/A,,,/ [A,,,A,,][A,,,A,,][A,,,A,,] | %39
 !>![D,,,D,,]3/2!>![E,,,E,,]3/2 !>![^F,,,^F,,]3/2!>![G,,,G,,]3/2 | %40
 !>![C,,C,]>C,,C,/C,,/ [C,G,][C,,C,][C,,C,] | %41
 !>![C,,C,]3/2!>![B,,,B,,]3/2 !>![A,,,A,,]3/2!>![G,,,G,,]3/2 | A,D,F,/G,/ A,D,^F,/G,/ | %43
 A,D,/B,/A,/G,/ F,/G,/E,/F,/D,/C,/ || %44
[K:C] !>![A,,,A,,]>[A,,,A,,][A,,,A,,]/[A,,,A,,]/ !>![F,,,F,,]>[F,,,F,,][F,,,F,,]/[F,,,F,,]/ | %45
 !>![D,,,D,,]>[D,,,D,,][D,,,D,,] !>![E,,,E,,][E,,,E,,][E,,,E,,] | %46
 !>![A,,,A,,]>[A,,,A,,][A,,,A,,]/[A,,,A,,]/ !>![E,,,E,,]>[E,,,E,,][E,,,E,,]/[E,,,E,,]/ | %47
 !>![F,,,F,,]>[F,,,F,,][F,,,F,,] !>![C,,,C,,][C,,,C,,][C,,,C,,] | %48
 !>![A,,,A,,]>[A,,,A,,][A,,,A,,]/[A,,,A,,]/ !>![F,,,F,,]>[F,,,F,,][F,,,F,,]/[F,,,F,,]/ | %49
 !>![D,,,D,,]>[D,,,D,,][D,,,D,,] !>![E,,,E,,][E,,,E,,][E,,,E,,] | %50
 !>![A,,,A,,]>[A,,,A,,][A,,,A,,]/[A,,,A,,]/ !>![F,,,F,,]>[F,,,F,,][F,,,F,,]/[F,,,F,,]/ | %51
 !>![D,,,D,,]>[D,,,D,,][D,,,D,,] !>![E,,,E,,][E,,,E,,][E,,,E,,] | %52
 !>![A,,,A,,]>[A,,,A,,][A,,,A,,]/[A,,,A,,]/ !>![F,,,F,,]>[F,,,F,,][F,,,F,,]/[F,,,F,,]/ | %53
 !>![D,,,D,,]>[D,,,D,,][D,,,D,,] !>![E,,,E,,][E,,,E,,][E,,,E,,] | %54
 !>![A,,,A,,]>A,,!>![E,C] !>![F,,,F,,]>F,,!>![C,A,] | %55
 !>![D,,,D,,]>[D,,,D,,][D,,,D,,] !>![E,,,E,,]!>![E,,E,]!>![E,,,E,,] | [A,,,A,,]6 |] %57
V:4
 !//!A,8 | !//!A,8 | D,2 A,6- | A,4 B,2 C2 | D8 | x8 | x8 | x8 | x8 |[M:6/8] x6 | x6 | x6 | %12
[M:3/8] x3 |[M:6/8] x6 | x6 | x6 | x6 | x6 | x6 | x6 | x6 | x6 | x6 | x6 | x6 | x6 | x6 | x6 | x6 | %29
 x6 | x6 | x6 | x6 | x6 | x6 | x6 | x6 | x6 | x6 | x6 | x6 | x6 | x6 | x6 ||[K:C] x6 | x6 | x6 | %47
 x6 | x6 | x6 | x6 | x6 | x6 | x6 | x6 | x6 | x6 |] %57
V:5
 x8 | x8 | x8 | x8 | x8 | x8 | x8 | D3 D F4 | E4 x4 |[M:6/8] x6 | x6 | x3 F,F, z |[M:3/8] G,G, z | %13
[M:6/8] x6 | x6 | x6 | x6 | x6 | x6 | x6 | x6 | x6 | x6 | x6 | x6 | x6 | x6 | x6 | x6 | x6 | x6 | %31
 x6 | x6 | x6 | x6 | x6 | x6 | x6 | x6 | x6 | x6 | x6 | x6 | x6 ||[K:C] x6 | x6 | x6 | x6 | x6 | %49
 x6 | x6 | x6 | x6 | x6 | x6 | x6 | x6 |] %57

